images/3234578.svg

<?xml version="1.0" encoding="UTF-8"?>
<svg xmlns="http://www.w3.org/2000/svg" xmlns:xlink="http://www.w3.org/1999/xlink" width="300pt" height="300pt" viewBox="0 0 300 300" version="1.1">
<defs>
<g>
<symbol overflow="visible" id="glyph0-0">
<path style="stroke:none;" d="M 0.75 2.65625 L 0.75 -10.578125 L 8.25 -10.578125 L 8.25 2.65625 Z M 1.59375 1.8125 L 7.40625 1.8125 L 7.40625 -9.734375 L 1.59375 -9.734375 Z M 1.59375 1.8125 "/>
</symbol>
<symbol overflow="visible" id="glyph0-1">
<path style="stroke:none;" d="M 1.46875 -10.9375 L 3.46875 -10.9375 L 8.3125 -1.78125 L 8.3125 -10.9375 L 9.75 -10.9375 L 9.75 0 L 7.75 0 L 2.90625 -9.140625 L 2.90625 0 L 1.46875 0 Z M 1.46875 -10.9375 "/>
</symbol>
</g>
</defs>
<g id="surface35441">
<rect x="0" y="0" width="300" height="300" style="fill:rgb(100%,100%,100%);fill-opacity:1;stroke:none;"/>
<path style="fill:none;stroke-width:1.2;stroke-linecap:butt;stroke-linejoin:miter;stroke:rgb(0%,0%,0%);stroke-opacity:1;stroke-miterlimit:10;" d="M 250.074219 251.507812 L 245.199219 234.589844 "/>
<path style="fill:none;stroke-width:1.2;stroke-linecap:butt;stroke-linejoin:miter;stroke:rgb(0%,0%,100%);stroke-opacity:1;stroke-miterlimit:10;" d="M 245.199219 234.589844 L 240.324219 217.671875 "/>
<path style="fill:none;stroke-width:1.2;stroke-linecap:butt;stroke-linejoin:miter;stroke:rgb(0%,0%,100%);stroke-opacity:1;stroke-miterlimit:10;" d="M 240.324219 217.671875 L 223.234375 213.4375 "/>
<path style="fill:none;stroke-width:1.2;stroke-linecap:butt;stroke-linejoin:miter;stroke:rgb(0%,0%,0%);stroke-opacity:1;stroke-miterlimit:10;" d="M 223.234375 213.4375 L 206.144531 209.199219 "/>
<path style="fill:none;stroke-width:1.2;stroke-linecap:butt;stroke-linejoin:miter;stroke:rgb(0%,0%,0%);stroke-opacity:1;stroke-miterlimit:10;" d="M 264.75 192.308594 L 252.535156 204.988281 "/>
<path style="fill:none;stroke-width:1.2;stroke-linecap:butt;stroke-linejoin:miter;stroke:rgb(0%,0%,100%);stroke-opacity:1;stroke-miterlimit:10;" d="M 252.535156 204.988281 L 240.324219 217.671875 "/>
<path style=" stroke:none;fill-rule:nonzero;fill:rgb(100%,100%,100%);fill-opacity:1;" d="M 235.324219 208.671875 L 246.324219 208.671875 L 246.324219 226.671875 L 235.324219 226.671875 Z M 235.324219 208.671875 "/>
<g style="fill:rgb(0%,0%,100%);fill-opacity:1;">
  <use xlink:href="#glyph0-1" x="235.324219" y="222.286133"/>
</g>
<path style="fill:none;stroke-width:1.2;stroke-linecap:butt;stroke-linejoin:miter;stroke:rgb(0%,0%,0%);stroke-opacity:1;stroke-miterlimit:10;" d="M 206.144531 209.199219 L 196.390625 175.363281 "/>
<path style="fill:none;stroke-width:1.2;stroke-linecap:butt;stroke-linejoin:miter;stroke:rgb(0%,0%,0%);stroke-opacity:1;stroke-miterlimit:10;" d="M 196.390625 175.363281 L 208.605469 162.683594 "/>
<path style="fill:none;stroke-width:1.2;stroke-linecap:butt;stroke-linejoin:miter;stroke:rgb(0%,0%,100%);stroke-opacity:1;stroke-miterlimit:10;" d="M 208.605469 162.683594 L 220.820312 150 "/>
<path style="fill:none;stroke-width:1.2;stroke-linecap:butt;stroke-linejoin:miter;stroke:rgb(0%,0%,100%);stroke-opacity:1;stroke-miterlimit:10;" d="M 220.820312 150 L 237.910156 154.234375 "/>
<path style="fill:none;stroke-width:1.2;stroke-linecap:butt;stroke-linejoin:miter;stroke:rgb(0%,0%,0%);stroke-opacity:1;stroke-miterlimit:10;" d="M 237.910156 154.234375 L 254.996094 158.472656 "/>
<path style="fill:none;stroke-width:1.2;stroke-linecap:butt;stroke-linejoin:miter;stroke:rgb(0%,0%,100%);stroke-opacity:1;stroke-miterlimit:10;" d="M 220.820312 150 L 215.941406 133.082031 "/>
<path style="fill:none;stroke-width:1.2;stroke-linecap:butt;stroke-linejoin:miter;stroke:rgb(0%,0%,0%);stroke-opacity:1;stroke-miterlimit:10;" d="M 215.941406 133.082031 L 211.066406 116.164062 "/>
<path style=" stroke:none;fill-rule:nonzero;fill:rgb(100%,100%,100%);fill-opacity:1;" d="M 215.820312 141 L 226.820312 141 L 226.820312 159 L 215.820312 159 Z M 215.820312 141 "/>
<g style="fill:rgb(0%,0%,100%);fill-opacity:1;">
  <use xlink:href="#glyph0-1" x="215.820312" y="154.614258"/>
</g>
<path style="fill:none;stroke-width:1.2;stroke-linecap:butt;stroke-linejoin:miter;stroke:rgb(0%,0%,0%);stroke-opacity:1;stroke-miterlimit:10;" d="M 254.996094 158.472656 L 264.75 192.308594 "/>
<path style="fill:none;stroke-width:1.2;stroke-linecap:butt;stroke-linejoin:miter;stroke:rgb(0%,0%,0%);stroke-opacity:1;stroke-miterlimit:10;" d="M 211.066406 116.164062 L 223.28125 103.480469 "/>
<path style="fill:none;stroke-width:1.2;stroke-linecap:butt;stroke-linejoin:miter;stroke:rgb(0%,0%,100%);stroke-opacity:1;stroke-miterlimit:10;" d="M 223.28125 103.480469 L 235.492188 90.800781 "/>
<path style="fill:none;stroke-width:1.2;stroke-linecap:butt;stroke-linejoin:miter;stroke:rgb(0%,0%,0%);stroke-opacity:1;stroke-miterlimit:10;" d="M 207.542969 107.878906 L 217.3125 97.734375 "/>
<path style="fill:none;stroke-width:1.2;stroke-linecap:butt;stroke-linejoin:miter;stroke:rgb(0%,0%,100%);stroke-opacity:1;stroke-miterlimit:10;" d="M 217.3125 97.734375 L 227.082031 87.589844 "/>
<path style="fill:none;stroke-width:1.2;stroke-linecap:butt;stroke-linejoin:miter;stroke:rgb(0%,0%,0%);stroke-opacity:1;stroke-miterlimit:10;" d="M 176.886719 107.691406 L 211.066406 116.164062 "/>
<path style="fill:none;stroke-width:1.2;stroke-linecap:butt;stroke-linejoin:miter;stroke:rgb(0%,0%,100%);stroke-opacity:1;stroke-miterlimit:10;" d="M 235.492188 90.800781 L 230.617188 73.882812 "/>
<path style="fill:none;stroke-width:1.2;stroke-linecap:butt;stroke-linejoin:miter;stroke:rgb(0%,0%,0%);stroke-opacity:1;stroke-miterlimit:10;" d="M 230.617188 73.882812 L 225.742188 56.964844 "/>
<path style=" stroke:none;fill-rule:nonzero;fill:rgb(100%,100%,100%);fill-opacity:1;" d="M 230.492188 81.800781 L 241.492188 81.800781 L 241.492188 99.800781 L 230.492188 99.800781 Z M 230.492188 81.800781 "/>
<g style="fill:rgb(0%,0%,100%);fill-opacity:1;">
  <use xlink:href="#glyph0-1" x="230.492188" y="95.415039"/>
</g>
<path style="fill:none;stroke-width:1.2;stroke-linecap:butt;stroke-linejoin:miter;stroke:rgb(0%,0%,0%);stroke-opacity:1;stroke-miterlimit:10;" d="M 225.742188 56.964844 L 208.652344 52.726562 "/>
<path style="fill:none;stroke-width:1.2;stroke-linecap:butt;stroke-linejoin:miter;stroke:rgb(0%,0%,100%);stroke-opacity:1;stroke-miterlimit:10;" d="M 208.652344 52.726562 L 191.5625 48.492188 "/>
<path style="fill:none;stroke-width:1.2;stroke-linecap:butt;stroke-linejoin:miter;stroke:rgb(0%,0%,0%);stroke-opacity:1;stroke-miterlimit:10;" d="M 220.328125 64.160156 L 206.65625 60.769531 "/>
<path style="fill:none;stroke-width:1.2;stroke-linecap:butt;stroke-linejoin:miter;stroke:rgb(0%,0%,100%);stroke-opacity:1;stroke-miterlimit:10;" d="M 206.65625 60.769531 L 192.988281 57.382812 "/>
<path style="fill:none;stroke-width:1.2;stroke-linecap:butt;stroke-linejoin:miter;stroke:rgb(0%,0%,100%);stroke-opacity:1;stroke-miterlimit:10;" d="M 191.5625 48.492188 L 179.347656 61.175781 "/>
<path style="fill:none;stroke-width:1.2;stroke-linecap:butt;stroke-linejoin:miter;stroke:rgb(0%,0%,0%);stroke-opacity:1;stroke-miterlimit:10;" d="M 179.347656 61.175781 L 167.136719 73.855469 "/>
<path style=" stroke:none;fill-rule:nonzero;fill:rgb(100%,100%,100%);fill-opacity:1;" d="M 186.5625 39.492188 L 197.5625 39.492188 L 197.5625 57.492188 L 186.5625 57.492188 Z M 186.5625 39.492188 "/>
<g style="fill:rgb(0%,0%,100%);fill-opacity:1;">
  <use xlink:href="#glyph0-1" x="186.5625" y="53.106445"/>
</g>
<path style="fill:none;stroke-width:1.2;stroke-linecap:butt;stroke-linejoin:miter;stroke:rgb(0%,0%,0%);stroke-opacity:1;stroke-miterlimit:10;" d="M 167.136719 73.855469 L 176.886719 107.691406 "/>
<path style="fill:none;stroke-width:1.2;stroke-linecap:butt;stroke-linejoin:miter;stroke:rgb(0%,0%,0%);stroke-opacity:1;stroke-miterlimit:10;" d="M 160.148438 79.535156 L 167.949219 106.601562 "/>
<path style="fill:none;stroke-width:1.2;stroke-linecap:butt;stroke-linejoin:miter;stroke:rgb(0%,0%,0%);stroke-opacity:1;stroke-miterlimit:10;" d="M 132.957031 65.382812 L 167.136719 73.855469 "/>
<path style="fill:none;stroke-width:1.2;stroke-linecap:butt;stroke-linejoin:miter;stroke:rgb(0%,0%,0%);stroke-opacity:1;stroke-miterlimit:10;" d="M 176.886719 107.691406 L 152.460938 133.054688 "/>
<path style="fill:none;stroke-width:1.2;stroke-linecap:butt;stroke-linejoin:miter;stroke:rgb(0%,0%,0%);stroke-opacity:1;stroke-miterlimit:10;" d="M 152.460938 133.054688 L 118.28125 124.582031 "/>
<path style="fill:none;stroke-width:1.2;stroke-linecap:butt;stroke-linejoin:miter;stroke:rgb(0%,0%,0%);stroke-opacity:1;stroke-miterlimit:10;" d="M 151.035156 124.167969 L 123.695312 117.386719 "/>
<path style="fill:none;stroke-width:1.2;stroke-linecap:butt;stroke-linejoin:miter;stroke:rgb(0%,0%,0%);stroke-opacity:1;stroke-miterlimit:10;" d="M 118.28125 124.582031 L 108.53125 90.746094 "/>
<path style="fill:none;stroke-width:1.2;stroke-linecap:butt;stroke-linejoin:miter;stroke:rgb(0%,0%,0%);stroke-opacity:1;stroke-miterlimit:10;" d="M 118.28125 124.582031 L 93.855469 149.945312 "/>
<path style="fill:none;stroke-width:1.2;stroke-linecap:butt;stroke-linejoin:miter;stroke:rgb(0%,0%,0%);stroke-opacity:1;stroke-miterlimit:10;" d="M 108.53125 90.746094 L 132.957031 65.382812 "/>
<path style="fill:none;stroke-width:1.2;stroke-linecap:butt;stroke-linejoin:miter;stroke:rgb(0%,0%,0%);stroke-opacity:1;stroke-miterlimit:10;" d="M 116.941406 93.957031 L 136.480469 73.667969 "/>
<path style="fill:none;stroke-width:1.2;stroke-linecap:butt;stroke-linejoin:miter;stroke:rgb(0%,0%,0%);stroke-opacity:1;stroke-miterlimit:10;" d="M 93.855469 149.945312 L 59.675781 141.476562 "/>
<path style="fill:none;stroke-width:1.2;stroke-linecap:butt;stroke-linejoin:miter;stroke:rgb(0%,0%,0%);stroke-opacity:1;stroke-miterlimit:10;" d="M 88.445312 157.140625 L 61.101562 150.363281 "/>
<path style="fill:none;stroke-width:1.2;stroke-linecap:butt;stroke-linejoin:miter;stroke:rgb(0%,0%,0%);stroke-opacity:1;stroke-miterlimit:10;" d="M 103.609375 183.78125 L 93.855469 149.945312 "/>
<path style="fill:none;stroke-width:1.2;stroke-linecap:butt;stroke-linejoin:miter;stroke:rgb(0%,0%,0%);stroke-opacity:1;stroke-miterlimit:10;" d="M 59.675781 141.476562 L 47.464844 154.15625 "/>
<path style="fill:none;stroke-width:1.2;stroke-linecap:butt;stroke-linejoin:miter;stroke:rgb(0%,0%,100%);stroke-opacity:1;stroke-miterlimit:10;" d="M 47.464844 154.15625 L 35.25 166.839844 "/>
<path style="fill:none;stroke-width:1.2;stroke-linecap:butt;stroke-linejoin:miter;stroke:rgb(0%,0%,100%);stroke-opacity:1;stroke-miterlimit:10;" d="M 35.25 166.839844 L 40.125 183.757812 "/>
<path style="fill:none;stroke-width:1.2;stroke-linecap:butt;stroke-linejoin:miter;stroke:rgb(0%,0%,0%);stroke-opacity:1;stroke-miterlimit:10;" d="M 40.125 183.757812 L 45.003906 200.675781 "/>
<path style="fill:none;stroke-width:1.2;stroke-linecap:butt;stroke-linejoin:miter;stroke:rgb(0%,0%,100%);stroke-opacity:1;stroke-miterlimit:10;" d="M 44.1875 167.925781 L 48.085938 181.460938 "/>
<path style="fill:none;stroke-width:1.2;stroke-linecap:butt;stroke-linejoin:miter;stroke:rgb(0%,0%,0%);stroke-opacity:1;stroke-miterlimit:10;" d="M 48.085938 181.460938 L 51.988281 194.996094 "/>
<path style=" stroke:none;fill-rule:nonzero;fill:rgb(100%,100%,100%);fill-opacity:1;" d="M 30.25 157.839844 L 41.25 157.839844 L 41.25 175.839844 L 30.25 175.839844 Z M 30.25 157.839844 "/>
<g style="fill:rgb(0%,0%,100%);fill-opacity:1;">
  <use xlink:href="#glyph0-1" x="30.25" y="171.454102"/>
</g>
<path style="fill:none;stroke-width:1.2;stroke-linecap:butt;stroke-linejoin:miter;stroke:rgb(0%,0%,0%);stroke-opacity:1;stroke-miterlimit:10;" d="M 45.003906 200.675781 L 79.179688 209.148438 "/>
<path style="fill:none;stroke-width:1.2;stroke-linecap:butt;stroke-linejoin:miter;stroke:rgb(0%,0%,0%);stroke-opacity:1;stroke-miterlimit:10;" d="M 79.179688 209.148438 L 103.609375 183.78125 "/>
<path style="fill:none;stroke-width:1.2;stroke-linecap:butt;stroke-linejoin:miter;stroke:rgb(0%,0%,0%);stroke-opacity:1;stroke-miterlimit:10;" d="M 75.65625 200.863281 L 95.195312 180.570312 "/>
</g>
</svg>

<svg xmlns="http://www.w3.org/2000/svg" xmlns:xlink="http://www.w3.org/1999/xlink" width="300pt" height="300pt" viewBox="0 0 300 300"><defs><symbol overflow="visible"><path d="M.75 2.656v-13.234h7.5V2.656zm.844-.844h5.812V-9.733H1.594zm0 0"/></symbol><symbol overflow="visible" id="a"><path d="M1.47-10.938h2L8.31-1.78v-9.158H9.75V0h-2L2.906-9.14V0H1.47zm0 0"/></symbol></defs><g><path fill="#fff" d="M0 0h300v300H0z"/><path d="M250.074 251.508L245.2 234.59" stroke-width="1.2" stroke="#000" stroke-miterlimit="10" fill="none"/><path d="M245.2 234.59l-4.876-16.918M240.324 217.672l-17.09-4.234" stroke-width="1.2" stroke="#00f" stroke-miterlimit="10" fill="none"/><path d="M223.234 213.438l-17.09-4.24M264.75 192.31l-12.215 12.678" stroke-width="1.2" stroke="#000" stroke-miterlimit="10" fill="none"/><path d="M252.535 204.988l-12.21 12.684" stroke-width="1.2" stroke="#00f" stroke-miterlimit="10" fill="none"/><path d="M235.324 208.672h11v18h-11zm0 0" fill="#fff"/><use xlink:href="#a" x="235.324" y="222.286" fill="#00f"/><path d="M206.145 209.2l-9.754-33.837M196.39 175.363l12.215-12.68" stroke-width="1.2" stroke="#000" stroke-miterlimit="10" fill="none"/><path d="M208.605 162.684L220.82 150M220.82 150l17.09 4.234" stroke-width="1.2" stroke="#00f" stroke-miterlimit="10" fill="none"/><path d="M237.91 154.234l17.086 4.24" stroke-width="1.2" stroke="#000" stroke-miterlimit="10" fill="none"/><path d="M220.82 150l-4.88-16.918" stroke-width="1.2" stroke="#00f" stroke-miterlimit="10" fill="none"/><path d="M215.94 133.082l-4.874-16.918" stroke-width="1.2" stroke="#000" stroke-miterlimit="10" fill="none"/><path d="M215.82 141h11v18h-11zm0 0" fill="#fff"/><use xlink:href="#a" x="215.82" y="154.614" fill="#00f"/><path d="M254.996 158.473l9.754 33.836M211.066 116.164l12.215-12.684" stroke-width="1.2" stroke="#000" stroke-miterlimit="10" fill="none"/><path d="M223.28 103.48l12.212-12.68" stroke-width="1.2" stroke="#00f" stroke-miterlimit="10" fill="none"/><path d="M207.543 107.88l9.77-10.146" stroke-width="1.2" stroke="#000" stroke-miterlimit="10" fill="none"/><path d="M217.313 97.734l9.77-10.144" stroke-width="1.2" stroke="#00f" stroke-miterlimit="10" fill="none"/><path d="M176.887 107.69l34.18 8.474" stroke-width="1.2" stroke="#000" stroke-miterlimit="10" fill="none"/><path d="M235.492 90.8l-4.875-16.917" stroke-width="1.2" stroke="#00f" stroke-miterlimit="10" fill="none"/><path d="M230.617 73.883l-4.875-16.918" stroke-width="1.2" stroke="#000" stroke-miterlimit="10" fill="none"/><path d="M230.492 81.8h11v18h-11zm0 0" fill="#fff"/><use xlink:href="#a" x="230.492" y="95.415" fill="#00f"/><path d="M225.742 56.965l-17.09-4.238" stroke-width="1.2" stroke="#000" stroke-miterlimit="10" fill="none"/><path d="M208.652 52.727l-17.09-4.235" stroke-width="1.2" stroke="#00f" stroke-miterlimit="10" fill="none"/><path d="M220.328 64.16l-13.672-3.39" stroke-width="1.2" stroke="#000" stroke-miterlimit="10" fill="none"/><path d="M206.656 60.77l-13.668-3.387M191.563 48.492l-12.215 12.684" stroke-width="1.2" stroke="#00f" stroke-miterlimit="10" fill="none"/><path d="M179.348 61.176l-12.21 12.68" stroke-width="1.2" stroke="#000" stroke-miterlimit="10" fill="none"/><path d="M186.563 39.492h11v18h-11zm0 0" fill="#fff"/><use xlink:href="#a" x="186.563" y="53.106" fill="#00f"/><path d="M167.137 73.855l9.75 33.836M160.148 79.535l7.8 27.067M132.957 65.383l34.18 8.472M176.887 107.69l-24.426 25.365M152.46 133.055l-34.18-8.473M151.035 124.168l-27.34-6.78M118.28 124.582l-9.75-33.836M118.28 124.582l-24.425 25.363M108.53 90.746l24.427-25.363M116.94 93.957l19.54-20.29M93.855 149.945l-34.18-8.468M88.445 157.14l-27.343-6.777M103.61 183.78l-9.755-33.835M59.676 141.477l-12.21 12.68" stroke-width="1.2" stroke="#000" stroke-miterlimit="10" fill="none"/><path d="M47.465 154.156L35.25 166.84M35.25 166.84l4.875 16.918" stroke-width="1.2" stroke="#00f" stroke-miterlimit="10" fill="none"/><path d="M40.125 183.758l4.88 16.918" stroke-width="1.2" stroke="#000" stroke-miterlimit="10" fill="none"/><path d="M44.188 167.926l3.898 13.535" stroke-width="1.2" stroke="#00f" stroke-miterlimit="10" fill="none"/><path d="M48.086 181.46l3.902 13.536" stroke-width="1.2" stroke="#000" stroke-miterlimit="10" fill="none"/><path d="M30.25 157.84h11v18h-11zm0 0" fill="#fff"/><use xlink:href="#a" x="30.25" y="171.454" fill="#00f"/><path d="M45.004 200.676l34.176 8.472M79.18 209.148l24.43-25.367M75.656 200.863l19.54-20.293" stroke-width="1.2" stroke="#000" stroke-miterlimit="10" fill="none"/></g></svg>
